assets/img/braze_icons/dots-vertical.svg

<svg fill="none" height="24" viewBox="0 0 24 24" width="24" xmlns="http://www.w3.org/2000/svg"><g clip-rule="evenodd" fill="#801ed7" fill-rule="evenodd"><path d="m10 12c0-1.1046.8954-2 2-2s2 .8954 2 2-.8954 2-2 2-2-.8954-2-2z"/><path d="m10 5c0-1.10457.8954-2 2-2s2 .89543 2 2-.8954 2-2 2-2-.89543-2-2z"/><path d="m10 19c0-1.1046.8954-2 2-2s2 .8954 2 2-.8954 2-2 2-2-.8954-2-2z"/></g></svg>

<svg width="24" height="24" viewBox="0 0 24 24" fill="none" xmlns="http://www.w3.org/2000/svg">
<path fill-rule="evenodd" clip-rule="evenodd" d="M10 12C10 10.8954 10.8954 10 12 10C13.1046 10 14 10.8954 14 12C14 13.1046 13.1046 14 12 14C10.8954 14 10 13.1046 10 12Z" fill="#801ED7"/>
<path fill-rule="evenodd" clip-rule="evenodd" d="M10 5C10 3.89543 10.8954 3 12 3C13.1046 3 14 3.89543 14 5C14 6.10457 13.1046 7 12 7C10.8954 7 10 6.10457 10 5Z" fill="#801ED7"/>
<path fill-rule="evenodd" clip-rule="evenodd" d="M10 19C10 17.8954 10.8954 17 12 17C13.1046 17 14 17.8954 14 19C14 20.1046 13.1046 21 12 21C10.8954 21 10 20.1046 10 19Z" fill="#801ED7"/>
</svg>
